images/stMATIC.svg

<svg height="250" viewBox="0 0 250 250" width="250" xmlns="http://www.w3.org/2000/svg" xmlns:xlink="http://www.w3.org/1999/xlink"><linearGradient id="a" gradientUnits="userSpaceOnUse" x1="207.0968816271" x2="30.69229264882" y1="52.07739749981" y2="182.80520376643"><stop offset="0" stop-color="#00a3ff"/><stop offset="1" stop-color="#3adcff"/></linearGradient><path d="m125 0c69.03125 0 125 55.96875 125 125s-55.96875 125-125 125-125-55.953125-125-125 55.960938-125 125-125zm0 0" fill="#fff"/><path d="m166.503906 96.636719c-1.578125-.910157-3.371094-1.390625-5.191406-1.390625s-3.609375.480468-5.1875 1.390625l-23.808594 14.179687-16.175781 9.25-23.808594 14.183594c-1.578125.910156-3.367187 1.386719-5.1875 1.386719-1.820312 0-3.609375-.476563-5.1875-1.386719l-18.921875-11.101562c-1.554687-.925782-2.847656-2.234376-3.753906-3.796876-.90625-1.566406-1.402344-3.335937-1.4375-5.140624v-21.890626c-.03125-1.824218.4375-3.617187 1.351562-5.195312.914063-1.574219 2.242188-2.871094 3.839844-3.746094l18.617188-10.792968c1.578125-.910157 3.367187-1.386719 5.1875-1.386719 1.820312 0 3.609375.476562 5.1875 1.386719l18.621094 10.792968c1.550781.925782 2.84375 2.234375 3.75 3.796875.90625 1.566407 1.402343 3.335938 1.4375 5.144531v14.179688l16.175781-9.554688v-14.183593c.03125-1.820313-.4375-3.617188-1.351563-5.191407-.914062-1.578124-2.242187-2.871093-3.835937-3.75l-34.492188-20.347656c-1.578125-.910156-3.367187-1.390625-5.1875-1.390625-1.820312 0-3.609375.480469-5.1875 1.390625l-35.101562 20.347656c-1.59375.878907-2.921875 2.171876-3.835938 3.75-.914062 1.574219-1.382812 3.371094-1.351562 5.191407v41.003906c-.03125 1.820313.4375 3.617187 1.351562 5.191406.914063 1.578125 2.242188 2.875 3.835938 3.75l35.101562 20.347657c1.578125.910156 3.367188 1.390624 5.1875 1.390624 1.820313 0 3.613281-.480468 5.1875-1.390624l23.808594-13.871094 16.175781-9.558594 23.808594-13.875c1.578125-.910156 3.367188-1.386719 5.1875-1.386719s3.613281.476563 5.191406 1.386719l18.617188 10.792969c1.550781.925781 2.84375 2.234375 3.75 3.796875s1.402344 3.335937 1.4375 5.140625v21.890625c.03125 1.824218-.4375 3.617187-1.351563 5.195312-.914062 1.574219-2.242187 2.871094-3.835937 3.746094l-18.617188 11.101562c-1.578125.910157-3.371094 1.386719-5.191406 1.386719s-3.609375-.476562-5.1875-1.386719l-18.617188-10.792968c-1.554687-.925782-2.84375-2.234375-3.753906-3.796875-.90625-1.566407-1.402344-3.335938-1.4375-5.144531v-14.179688l-16.175781 9.554688v14.183593c-.03125 1.820313.4375 3.617188 1.351563 5.191407.914062 1.578124 2.242187 2.871093 3.835937 3.75l35.101563 20.347656c1.578124.910156 3.367187 1.390625 5.1875 1.390625 1.824218 0 3.613281-.480469 5.191406-1.390625l35.097656-20.347656c1.554688-.925782 2.84375-2.234376 3.753906-3.796876.90625-1.566406 1.402344-3.335937 1.4375-5.144531v-41.003906c.027344-1.824219-.4375-3.617187-1.351562-5.191406-.914063-1.578125-2.242188-2.875-3.839844-3.75zm0 0" fill="url(#a)"/></svg>

<svg xmlns="http://www.w3.org/2000/svg" xmlns:xlink="http://www.w3.org/1999/xlink" width="250px" height="250px" viewBox="0 0 250 250" version="1.1">
<defs>
<linearGradient id="linear0" gradientUnits="userSpaceOnUse" x1="19.8813" y1="4.99943" x2="2.94646" y2="17.549299" gradientTransform="matrix(10.416667,0,0,10.416667,0,0)">
<stop offset="0" style="stop-color:rgb(0%,63.921571%,100%);stop-opacity:1;"/>
<stop offset="1" style="stop-color:rgb(22.745098%,86.274511%,100%);stop-opacity:1;"/>
</linearGradient>
</defs>
<g id="surface1">
<path style=" stroke:none;fill-rule:nonzero;fill:rgb(100%,100%,100%);fill-opacity:1;" d="M 125 0 C 194.03125 0 250 55.96875 250 125 C 250 194.03125 194.03125 250 125 250 C 55.96875 250 0 194.046875 0 125 C 0 55.953125 55.960938 0 125 0 Z M 125 0 "/>
<path style=" stroke:none;fill-rule:nonzero;fill:url(#linear0);" d="M 166.503906 96.636719 C 164.925781 95.726562 163.132812 95.246094 161.3125 95.246094 C 159.492188 95.246094 157.703125 95.726562 156.125 96.636719 L 132.316406 110.816406 L 116.140625 120.066406 L 92.332031 134.25 C 90.753906 135.160156 88.964844 135.636719 87.144531 135.636719 C 85.324219 135.636719 83.535156 135.160156 81.957031 134.25 L 63.035156 123.148438 C 61.480469 122.222656 60.1875 120.914062 59.28125 119.351562 C 58.375 117.785156 57.878906 116.015625 57.84375 114.210938 L 57.84375 92.320312 C 57.8125 90.496094 58.28125 88.703125 59.195312 87.125 C 60.109375 85.550781 61.4375 84.253906 63.035156 83.378906 L 81.652344 72.585938 C 83.230469 71.675781 85.019531 71.199219 86.839844 71.199219 C 88.660156 71.199219 90.449219 71.675781 92.027344 72.585938 L 110.648438 83.378906 C 112.199219 84.304688 113.492188 85.613281 114.398438 87.175781 C 115.304688 88.742188 115.800781 90.511719 115.835938 92.320312 L 115.835938 106.5 L 132.011719 96.945312 L 132.011719 82.761719 C 132.042969 80.941406 131.574219 79.144531 130.660156 77.570312 C 129.746094 75.992188 128.417969 74.699219 126.824219 73.820312 L 92.332031 53.472656 C 90.753906 52.5625 88.964844 52.082031 87.144531 52.082031 C 85.324219 52.082031 83.535156 52.5625 81.957031 53.472656 L 46.855469 73.820312 C 45.261719 74.699219 43.933594 75.992188 43.019531 77.570312 C 42.105469 79.144531 41.636719 80.941406 41.667969 82.761719 L 41.667969 123.765625 C 41.636719 125.585938 42.105469 127.382812 43.019531 128.957031 C 43.933594 130.535156 45.261719 131.832031 46.855469 132.707031 L 81.957031 153.054688 C 83.535156 153.964844 85.324219 154.445312 87.144531 154.445312 C 88.964844 154.445312 90.757812 153.964844 92.332031 153.054688 L 116.140625 139.183594 L 132.316406 129.625 L 156.125 115.75 C 157.703125 114.839844 159.492188 114.363281 161.3125 114.363281 C 163.132812 114.363281 164.925781 114.839844 166.503906 115.75 L 185.121094 126.542969 C 186.671875 127.46875 187.964844 128.777344 188.871094 130.339844 C 189.777344 131.902344 190.273438 133.675781 190.308594 135.480469 L 190.308594 157.371094 C 190.339844 159.195312 189.871094 160.988281 188.957031 162.566406 C 188.042969 164.140625 186.714844 165.4375 185.121094 166.3125 L 166.503906 177.414062 C 164.925781 178.324219 163.132812 178.800781 161.3125 178.800781 C 159.492188 178.800781 157.703125 178.324219 156.125 177.414062 L 137.507812 166.621094 C 135.953125 165.695312 134.664062 164.386719 133.753906 162.824219 C 132.847656 161.257812 132.351562 159.488281 132.316406 157.679688 L 132.316406 143.5 L 116.140625 153.054688 L 116.140625 167.238281 C 116.109375 169.058594 116.578125 170.855469 117.492188 172.429688 C 118.40625 174.007812 119.734375 175.300781 121.328125 176.179688 L 156.429688 196.527344 C 158.007812 197.4375 159.796875 197.917969 161.617188 197.917969 C 163.441406 197.917969 165.230469 197.4375 166.808594 196.527344 L 201.90625 176.179688 C 203.460938 175.253906 204.75 173.945312 205.660156 172.382812 C 206.566406 170.816406 207.0625 169.046875 207.097656 167.238281 L 207.097656 126.234375 C 207.125 124.410156 206.660156 122.617188 205.746094 121.042969 C 204.832031 119.464844 203.503906 118.167969 201.90625 117.292969 Z M 166.503906 96.636719 "/>
</g>
</svg>
